svg/editor/sort_ascending_line.svg

<?xml version="1.0" encoding="UTF-8"?>
<svg width="24px" height="24px" viewBox="0 0 24 24" version="1.1" xmlns="http://www.w3.org/2000/svg" xmlns:xlink="http://www.w3.org/1999/xlink">
    <title>sort_ascending_line</title>
    <g id="页面-1" stroke="none" stroke-width="1" fill="none" fill-rule="evenodd">
        <g id="Editor" transform="translate(-720.000000, -96.000000)" fill-rule="nonzero">
            <g id="sort_ascending_line" transform="translate(720.000000, 96.000000)">
                 <path d="M24,0 L24,24 L0,24 L0,0 L24,0 Z M12.5934901,23.257841 L12.5819402,23.2595131 L12.5108777,23.2950439 L12.4918791,23.2987469 L12.4918791,23.2987469 L12.4767152,23.2950439 L12.4056548,23.2595131 C12.3958229,23.2563662 12.3870493,23.2590235 12.3821421,23.2649074 L12.3780323,23.275831 L12.360941,23.7031097 L12.3658947,23.7234994 L12.3769048,23.7357139 L12.4804777,23.8096931 L12.4953491,23.8136134 L12.4953491,23.8136134 L12.5071152,23.8096931 L12.6106902,23.7357139 L12.6232938,23.7196733 L12.6232938,23.7196733 L12.6266527,23.7031097 L12.609561,23.275831 C12.6075724,23.2657013 12.6010112,23.2592993 12.5934901,23.257841 L12.5934901,23.257841 Z M12.8583906,23.1452862 L12.8445485,23.1473072 L12.6598443,23.2396597 L12.6498822,23.2499052 L12.6498822,23.2499052 L12.6471943,23.2611114 L12.6650943,23.6906389 L12.6699349,23.7034178 L12.6699349,23.7034178 L12.678386,23.7104931 L12.8793402,23.8032389 C12.8914285,23.8068999 12.9022333,23.8029875 12.9078286,23.7952264 L12.9118235,23.7811639 L12.8776777,23.1665331 C12.8752882,23.1545897 12.8674102,23.1470016 12.8583906,23.1452862 L12.8583906,23.1452862 Z M12.1430473,23.1473072 C12.1332178,23.1423925 12.1221763,23.1452606 12.1156365,23.1525954 L12.1099173,23.1665331 L12.0757714,23.7811639 C12.0751323,23.7926639 12.0828099,23.8018602 12.0926481,23.8045676 L12.108256,23.8032389 L12.3092106,23.7104931 L12.3186497,23.7024347 L12.3186497,23.7024347 L12.3225043,23.6906389 L12.340401,23.2611114 L12.337245,23.2485176 L12.337245,23.2485176 L12.3277531,23.2396597 L12.1430473,23.1473072 Z" id="MingCute" fill-rule="nonzero"></path>
                <path d="M17.2929,3.46465 C17.6533615,3.10416077 18.2206207,3.07643083 18.6128973,3.38146018 L18.7071,3.46465 L21.5355,6.29307 C21.9261,6.6836 21.9261,7.31676 21.5355,7.70729 C21.1750385,8.06777 20.6077793,8.09549923 20.2155027,7.79047769 L20.1213,7.70729 L19,6.58597 L19,19 C19,19.5523 18.5523,20 18,20 C17.48715,20 17.0644908,19.613973 17.0067275,19.1166239 L17,19 L17,6.58597 L15.8787,7.70729 C15.4882,8.09781 14.855,8.09781 14.4645,7.70729 C14.1039462,7.34680077 14.0762112,6.77957355 14.3812953,6.38727848 L14.4645,6.29307 L17.2929,3.46465 Z M13,18 C13.5523,18 14,18.4477 14,19 C14,19.51285 13.613973,19.9355092 13.1166239,19.9932725 L13,20 L4,20 C3.44772,20 3,19.5523 3,19 C3,18.48715 3.38604429,18.0644908 3.88337975,18.0067275 L4,18 L13,18 Z M13,11 C13.5523,11 14,11.4477 14,12 C14,12.5523 13.5523,13 13,13 L4,13 C3.44772,13 3,12.5523 3,12 C3,11.4477 3.44772,11 4,11 L13,11 Z M11,4 C11.5523,4 12,4.44772 12,5 C12,5.55229 11.5523,6 11,6 L4,6 C3.44772,6 3,5.55229 3,5 C3,4.44772 3.44772,4 4,4 L11,4 Z" id="形状" fill="#09244B"></path>
            </g>
        </g>
    </g>
</svg>

<svg xmlns="http://www.w3.org/2000/svg" width="24" height="24"><g fill="none" fill-rule="nonzero"><path d="M24 0v24H0V0h24ZM12.593 23.258l-.011.002-.071.035-.02.004-.014-.004-.071-.035c-.01-.004-.019-.001-.024.005l-.004.01-.017.428.005.02.01.013.104.074.015.004.012-.004.104-.074.012-.016.004-.017-.017-.427c-.002-.01-.009-.017-.017-.018Zm.265-.113-.013.002-.185.093-.01.01-.003.011.018.43.005.012.008.007.201.093c.012.004.023 0 .029-.008l.004-.014-.034-.614c-.003-.012-.01-.02-.02-.022Zm-.715.002a.023.023 0 0 0-.027.006l-.006.014-.034.614c0 .012.007.02.017.024l.015-.002.201-.093.01-.008.004-.011.017-.43-.003-.012-.01-.01-.184-.092Z"/><path fill="#09244B" d="M17.293 3.465a1 1 0 0 1 1.32-.084l.094.084 2.828 2.828a1 1 0 0 1-1.32 1.497l-.094-.083L19 6.586V19a1 1 0 0 1-1.993.117L17 19V6.586l-1.121 1.121a1 1 0 0 1-1.498-1.32l.083-.094 2.829-2.828ZM13 18a1 1 0 0 1 .117 1.993L13 20H4a1 1 0 0 1-.117-1.993L4 18h9Zm0-7a1 1 0 1 1 0 2H4a1 1 0 1 1 0-2h9Zm-2-7a1 1 0 1 1 0 2H4a1 1 0 1 1 0-2h7Z"/></g></svg>
